Dominus_Dark_Funeral/22/categories/applications-education-mathematics.svg

<svg xmlns="http://www.w3.org/2000/svg" width="24" height="24"><path d="M3.48 2.28c-.65 0-1.18.53-1.18 1.18v17.08c0 .65.53 1.18 1.18 1.18h17.04c.66 0 1.18-.53 1.18-1.18V3.46c0-.65-.52-1.18-1.18-1.18zm.54 1.1h15.96c.35 0 .63.28.63.63v3.27h-.2a.92.92 0 0 0-.87-.65h-.05a.92.92 0 0 0-.88.65h-7.17a.92.92 0 0 0-.88-.65h-.05a.92.92 0 0 0-.87.65H8.45a.92.92 0 0 0-.88-.65h-.05a.92.92 0 0 0-.88.65H5.46a.92.92 0 0 0-.88-.65h-.05a.92.92 0 0 0-.88.65h-.24-.02V4.01c0-.35.28-.64.63-.64zM3.4 8.13h.32c.14.32.45.54.82.54h.05c.37 0 .69-.22.83-.53H6.7c.15.31.46.53.83.53h.05c.37 0 .69-.22.83-.53h1.28c.15.31.46.53.83.53h.05c.37 0 .69-.22.84-.53h7.26c.14.31.46.53.83.53h.05c.37 0 .68-.22.83-.53h.24v3.41l-.1-.02h-.1a.92.92 0 0 0-.87-.64h-.05a.92.92 0 0 0-.88.64h-1.19a.92.92 0 0 0-.87-.64h-.05a.92.92 0 0 0-.88.64h-4.18a.92.92 0 0 0-.88-.64h-.05a.92.92 0 0 0-.87.64h-1.2a.92.92 0 0 0-.87-.64h-.05a.92.92 0 0 0-.87.64H3.39zm17.22 4.26v3.5h-.2a.92.92 0 0 0-.87-.65h-.05a.92.92 0 0 0-.88.64h-4.18a.92.92 0 0 0-.87-.64h-.05a.92.92 0 0 0-.88.64h-1.2a.92.92 0 0 0-.87-.64h-.05a.92.92 0 0 0-.87.64H5.46a.92.92 0 0 0-.88-.64h-.05a.92.92 0 0 0-.87.64h-.27v-3.48h3.3c.14.32.46.55.83.55h.05c.38 0 .7-.23.84-.55h1.27c.14.32.46.55.83.55h.05c.38 0 .7-.23.84-.55h4.26c.14.32.46.55.84.55h.05c.37 0 .69-.23.83-.55h1.27c.14.32.46.55.84.55h.05c.37 0 .7-.23.84-.55h.14l.09-.01zM3.39 16.76h.3c.15.32.47.54.84.54h.05c.38 0 .7-.22.84-.54h4.25c.15.32.47.54.84.54h.05c.38 0 .7-.22.84-.54h1.27c.14.32.46.54.84.54h.05c.37 0 .7-.22.84-.54h4.25c.14.32.46.54.84.54h.05c.37 0 .7-.22.84-.54h.23v3.23c0 .35-.28.63-.63.63H4.02A.63.63 0 0 1 3.4 20z" fill="#e6e6e6" fill-rule="evenodd"/></svg>

<?xml version="1.0" encoding="UTF-8" standalone="no"?>
<svg
   xmlns:dc="http://purl.org/dc/elements/1.1/"
   xmlns:cc="http://creativecommons.org/ns#"
   xmlns:rdf="http://www.w3.org/1999/02/22-rdf-syntax-ns#"
   xmlns:svg="http://www.w3.org/2000/svg"
   xmlns="http://www.w3.org/2000/svg"
   xmlns:sodipodi="http://sodipodi.sourceforge.net/DTD/sodipodi-0.dtd"
   xmlns:inkscape="http://www.inkscape.org/namespaces/inkscape"
   width="24"
   height="24"
   version="1.1"
   id="svg4"
   sodipodi:docname="applications-education-mathematics.svg"
   inkscape:version="0.92.4 (5da689c313, 2019-01-14)">
  <metadata
     id="metadata10">
    <rdf:RDF>
      <cc:Work
         rdf:about="">
        <dc:format>image/svg+xml</dc:format>
        <dc:type
           rdf:resource="http://purl.org/dc/dcmitype/StillImage" />
        <dc:title></dc:title>
      </cc:Work>
    </rdf:RDF>
  </metadata>
  <defs
     id="defs8" />
  <sodipodi:namedview
     pagecolor="#ffffff"
     bordercolor="#666666"
     borderopacity="1"
     objecttolerance="10"
     gridtolerance="10"
     guidetolerance="10"
     inkscape:pageopacity="0"
     inkscape:pageshadow="2"
     inkscape:window-width="1142"
     inkscape:window-height="480"
     id="namedview6"
     showgrid="false"
     inkscape:zoom="9.8333333"
     inkscape:cx="1.2711864"
     inkscape:cy="12"
     inkscape:window-x="0"
     inkscape:window-y="25"
     inkscape:window-maximized="0"
     inkscape:current-layer="svg4" />
  <path
     d="M 3.48,2.28 C 2.83,2.28 2.3,2.81 2.3,3.46 v 17.08 c 0,0.65 0.53,1.18 1.18,1.18 h 17.04 c 0.66,0 1.18,-0.53 1.18,-1.18 V 3.46 c 0,-0.65 -0.52,-1.18 -1.18,-1.18 z m 0.54,1.1 h 15.96 c 0.35,0 0.63,0.28 0.63,0.63 v 3.27 h -0.2 A 0.92,0.92 0 0 0 19.54,6.63 H 19.49 A 0.92,0.92 0 0 0 18.61,7.28 H 11.44 A 0.92,0.92 0 0 0 10.56,6.63 H 10.51 A 0.92,0.92 0 0 0 9.64,7.28 H 8.45 A 0.92,0.92 0 0 0 7.57,6.63 H 7.52 A 0.92,0.92 0 0 0 6.64,7.28 H 5.46 A 0.92,0.92 0 0 0 4.58,6.63 H 4.53 A 0.92,0.92 0 0 0 3.65,7.28 H 3.41 3.39 V 4.01 C 3.39,3.66 3.67,3.37 4.02,3.37 Z M 3.4,8.13 h 0.32 c 0.14,0.32 0.45,0.54 0.82,0.54 h 0.05 c 0.37,0 0.69,-0.22 0.83,-0.53 H 6.7 c 0.15,0.31 0.46,0.53 0.83,0.53 h 0.05 c 0.37,0 0.69,-0.22 0.83,-0.53 h 1.28 c 0.15,0.31 0.46,0.53 0.83,0.53 h 0.05 c 0.37,0 0.69,-0.22 0.84,-0.53 h 7.26 c 0.14,0.31 0.46,0.53 0.83,0.53 h 0.05 c 0.37,0 0.68,-0.22 0.83,-0.53 h 0.24 v 3.41 l -0.1,-0.02 h -0.1 A 0.92,0.92 0 0 0 19.55,10.89 H 19.5 a 0.92,0.92 0 0 0 -0.88,0.64 h -1.19 a 0.92,0.92 0 0 0 -0.87,-0.64 h -0.05 a 0.92,0.92 0 0 0 -0.88,0.64 H 11.45 A 0.92,0.92 0 0 0 10.57,10.89 H 10.52 A 0.92,0.92 0 0 0 9.65,11.53 H 8.45 A 0.92,0.92 0 0 0 7.58,10.89 H 7.53 A 0.92,0.92 0 0 0 6.66,11.53 H 3.39 Z m 17.22,4.26 v 3.5 h -0.2 A 0.92,0.92 0 0 0 19.55,15.24 H 19.5 a 0.92,0.92 0 0 0 -0.88,0.64 h -4.18 a 0.92,0.92 0 0 0 -0.87,-0.64 h -0.05 a 0.92,0.92 0 0 0 -0.88,0.64 h -1.2 A 0.92,0.92 0 0 0 10.57,15.24 H 10.52 A 0.92,0.92 0 0 0 9.65,15.88 H 5.46 A 0.92,0.92 0 0 0 4.58,15.24 H 4.53 A 0.92,0.92 0 0 0 3.66,15.88 H 3.39 V 12.4 h 3.3 c 0.14,0.32 0.46,0.55 0.83,0.55 h 0.05 c 0.38,0 0.7,-0.23 0.84,-0.55 h 1.27 c 0.14,0.32 0.46,0.55 0.83,0.55 h 0.05 c 0.38,0 0.7,-0.23 0.84,-0.55 h 4.26 c 0.14,0.32 0.46,0.55 0.84,0.55 h 0.05 c 0.37,0 0.69,-0.23 0.83,-0.55 h 1.27 c 0.14,0.32 0.46,0.55 0.84,0.55 h 0.05 c 0.37,0 0.7,-0.23 0.84,-0.55 h 0.14 l 0.09,-0.01 z M 3.39,16.76 h 0.3 c 0.15,0.32 0.47,0.54 0.84,0.54 h 0.05 c 0.38,0 0.7,-0.22 0.84,-0.54 h 4.25 c 0.15,0.32 0.47,0.54 0.84,0.54 h 0.05 c 0.38,0 0.7,-0.22 0.84,-0.54 h 1.27 c 0.14,0.32 0.46,0.54 0.84,0.54 h 0.05 c 0.37,0 0.7,-0.22 0.84,-0.54 h 4.25 c 0.14,0.32 0.46,0.54 0.84,0.54 h 0.05 c 0.37,0 0.7,-0.22 0.84,-0.54 h 0.23 v 3.23 c 0,0.35 -0.28,0.63 -0.63,0.63 H 4.02 A 0.63,0.63 0 0 1 3.4,20 Z"
     id="path2"
     inkscape:connector-curvature="0"
     style="fill:#e6e6e6;fill-rule:evenodd" />
</svg>
